components/icon/svg/24/food_resturant.svg

<?xml version="1.0" encoding="UTF-8"?>
<svg width="24px" height="24px" viewBox="0 0 24 24" version="1.1" xmlns="http://www.w3.org/2000/svg" xmlns:xlink="http://www.w3.org/1999/xlink">
    <!-- Generator: Sketch 64 (93537) - https://sketch.com -->
    <title>ic-db_food_resturant_24</title>
    <desc>Created with Sketch.</desc>
    <g id="Symbols" stroke="none" stroke-width="1" fill="none" fill-rule="evenodd">
        <g id="24dp-Icon/Food/Resturant" fill="#282D37">
            <path d="M11,2 C11.53125,2 11.96875,2.4688 11.96875,3.0312 L11.96875,7.2188 C11.96875,9.5938 10.25,11.5625 7.96875,11.9375 L7.96875,20.9688 C7.96875,21.5312 7.53125,22 7,22 C6.4375,22 6,21.5312 6,20.9688 L6,11.9375 C3.71875,11.5625 2,9.5938 2,7.2188 L2,3.0312 C2,2.4688 2.4375,2 3,2 C3.53125,2 4,2.4688 4,3.0312 L4,5 L6,5 L6,3.0312 C6,2.4688 6.4375,2 7,2 C7.5,2 8,2.375 8,3.0312 L8,5 L10,5 L10,3.0312 C10,2.4688 10.4375,2 11,2 Z M9.96875,7 L4,7 L4,7.2188 C4,8.7188 5.21875,9.9688 6.75,9.9688 L7.21875,9.9688 C8.75,9.9688 9.96875,8.7188 9.96875,7.2188 L9.96875,7 Z M21,2 C21.5625,2 22,2.4375 22,3 L22,21 C22,21.5625 21.5625,22 21,22 C20.46875,22 20,21.5625 20,21 L20,16 L19,16 C16.8125,16 15,14.1875 15,12 L15,7.9688 C15,5.89529113 16.0339792,4.07896533 17.6432794,3.01027545 C18.6049679,2.37164584 19.7609463,2 21,2 Z M20,4.0938 C18.21875,4.5625 16.96875,6.1875 16.96875,7.9688 L16.96875,12 C16.96875,13.0938 17.875,14 18.96875,14 L20,14 L20,4.0938 Z" id="🎨-Color"></path>
        </g>
    </g>
</svg>

<svg width="24" height="24" xmlns="http://www.w3.org/2000/svg"><path d="M11 2c.531 0 .969.469.969 1.031V7.22a4.774 4.774 0 01-4 4.718v9.032C7.969 21.53 7.53 22 7 22c-.563 0-1-.469-1-1.031v-9.032A4.774 4.774 0 012 7.22V3.03C2 2.47 2.438 2 3 2c.531 0 1 .469 1 1.031V5h2V3.031C6 2.47 6.438 2 7 2c.5 0 1 .375 1 1.031V5h2V3.031C10 2.47 10.438 2 11 2zM9.969 7H4v.219c0 1.5 1.219 2.75 2.75 2.75h.469c1.531 0 2.75-1.25 2.75-2.75V7zM21 2c.563 0 1 .438 1 1v18c0 .563-.438 1-1 1-.531 0-1-.438-1-1v-5h-1c-2.188 0-4-1.813-4-4V7.969a5.914 5.914 0 012.643-4.959A6.052 6.052 0 0121 2zm-1 2.094c-1.781.468-3.031 2.093-3.031 3.875V12c0 1.094.906 2 2 2H20V4.094z" fill="#282D37" fill-rule="evenodd"/></svg>
